X:1
T:The Sprig of Thyme
B:Traditional Tunes, A collection of Ballad Airs, ISBN 1-86143-081-7
Z:Frank Kidson
S:Mr Lolley
F:http://www.folkinfo.org/songs
M:4/4     %Meter
L:1/8     %
K:A
c3 A F2 GA |G2 F2 E3 e |f2 ed c2 BA |e6 z e |
w:Come, all you pret- ty fair maids That are just_ in your_ prime. I 
f2 ed c2 BA |cd cA F2 GA |Bc BA E2 FG |A6 z2 |]
w:would have you weed your_ gar--dens_ clear And let no_ one_ steal your_ thyme. 

